img/pseudo-06.svg

<svg width="35" height="52" viewBox="0 0 35 52" fill="none" xmlns="http://www.w3.org/2000/svg">
<path opacity="0.08" d="M16.2258 44.07C17.4391 44.07 18.5824 43.8133 19.6558 43.3C20.7524 42.7633 21.7091 42.04 22.5258 41.13C23.3424 40.1967 23.9841 39.1 24.4508 37.84C24.9174 36.5567 25.1508 35.1567 25.1508 33.64C25.1508 31.2833 24.5441 29.4283 23.3308 28.075C22.1408 26.7217 20.4841 26.045 18.3608 26.045C17.1708 26.045 16.0508 26.3017 15.0008 26.815C13.9508 27.3283 13.0291 28.0517 12.2358 28.985C11.4658 29.9183 10.8591 31.0383 10.4158 32.345C9.97245 33.6283 9.75078 35.0517 9.75078 36.615C9.75078 37.7117 9.87912 38.7267 10.1358 39.66C10.4158 40.57 10.8241 41.3517 11.3608 42.005C11.8974 42.6583 12.5624 43.1717 13.3558 43.545C14.1724 43.895 15.1291 44.07 16.2258 44.07ZM16.9958 20.235C17.8124 19.9083 18.6758 19.6517 19.5858 19.465C20.5191 19.2783 21.4874 19.185 22.4908 19.185C24.0541 19.185 25.5591 19.465 27.0058 20.025C28.4758 20.5617 29.7708 21.3783 30.8908 22.475C32.0108 23.5483 32.9091 24.9017 33.5858 26.535C34.2624 28.1683 34.6008 30.0583 34.6008 32.205C34.6008 34.865 34.1108 37.3733 33.1308 39.73C32.1741 42.0633 30.8441 44.1167 29.1408 45.89C27.4374 47.64 25.4191 49.0283 23.0858 50.055C20.7524 51.0583 18.2091 51.56 15.4558 51.56C13.1458 51.56 11.0808 51.1867 9.26078 50.44C7.46412 49.6933 5.94745 48.6433 4.71078 47.29C3.47411 45.9367 2.52911 44.3267 1.87578 42.46C1.24578 40.57 0.930781 38.505 0.930781 36.265C0.930781 34.7017 1.08245 33.185 1.38578 31.715C1.71245 30.2217 2.17911 28.7517 2.78578 27.305C3.41578 25.8583 4.19745 24.4 5.13078 22.93C6.06412 21.46 7.14912 19.955 8.38578 18.415L21.0908 2.42C21.6041 1.81333 22.3158 1.3 23.2258 0.879999C24.1591 0.459998 25.1858 0.249998 26.3058 0.249998H34.6008L18.5008 18.555L16.9958 20.235Z" fill="#262D33"/>
</svg>

<svg width="35" height="52" fill="none" xmlns="http://www.w3.org/2000/svg"><path opacity=".08" d="M16.226 44.07a7.85 7.85 0 003.43-.77 9.336 9.336 0 002.87-2.17c.816-.933 1.458-2.03 1.925-3.29.466-1.283.7-2.683.7-4.2 0-2.357-.607-4.212-1.82-5.565-1.19-1.353-2.847-2.03-4.97-2.03a7.55 7.55 0 00-3.36.77 8.514 8.514 0 00-2.765 2.17c-.77.933-1.377 2.053-1.82 3.36-.444 1.283-.665 2.707-.665 4.27 0 1.097.128 2.112.385 3.045.28.91.688 1.692 1.225 2.345a5.663 5.663 0 001.995 1.54c.816.35 1.773.525 2.87.525zm.77-23.835c.816-.327 1.68-.583 2.59-.77.933-.187 1.901-.28 2.905-.28a12.4 12.4 0 014.515.84 10.772 10.772 0 013.885 2.45c1.12 1.073 2.018 2.427 2.695 4.06.676 1.633 1.015 3.523 1.015 5.67 0 2.66-.49 5.168-1.47 7.525a19.458 19.458 0 01-3.99 6.16c-1.704 1.75-3.722 3.138-6.055 4.165-2.334 1.003-4.877 1.505-7.63 1.505-2.31 0-4.375-.373-6.195-1.12-1.797-.747-3.314-1.797-4.55-3.15-1.237-1.353-2.182-2.963-2.835-4.83-.63-1.89-.945-3.955-.945-6.195 0-1.563.151-3.08.455-4.55a25.449 25.449 0 011.4-4.41A32.069 32.069 0 015.13 22.93a50.336 50.336 0 013.255-4.515L21.09 2.42c.513-.607 1.225-1.12 2.135-1.54.933-.42 1.96-.63 3.08-.63H34.6L18.5 18.555l-1.505 1.68z" fill="#262D33"/></svg>
